build/images/calendar.svg

<svg width="24" height="22" viewBox="0 0 24 22" fill="none" xmlns="http://www.w3.org/2000/svg"><path fill-rule="evenodd" clip-rule="evenodd" d="M4.8 0h1.6v2.4h12V0H20v2.4h4v19.2H0V2.4h4.8V0zm13.6 3.4v3H20v-3h3v4.4H1V3.4h3.8v3h1.6v-3h12zM23 8.8H1v11.8h22V8.8z" fill="#2C2B2B"/></svg>

<svg width="24" height="22" viewBox="0 0 24 22" fill="none" xmlns="http://www.w3.org/2000/svg">
<path fill-rule="evenodd" clip-rule="evenodd" d="M4.8 0H6.4V2.4H18.4V0H20V2.4H23H24V3.4V7.8V8.8V20.6V21.6H23H1H0V20.6V8.8V7.8V3.4V2.4H1H4.8V0ZM18.4 3.4V6.4H20V3.4H23V7.8H1V3.4H4.8V6.4H6.4V3.4H18.4ZM23 8.8H1V20.6H23V8.8Z" fill="#2C2B2B"/>
</svg>
